gama.ui.shared/icons_svg/dark/experiment/experiment.continue.svg

<svg height="25" viewBox="-778.774 -3215.705 25 25" width="25" xmlns="http://www.w3.org/2000/svg"><g fill="none"><circle cx="-766.274" cy="-3203.205" fill="#666" r="12"/><circle cx="-766.274" cy="-3203.205" r="12" stroke="#fff" stroke-linecap="round" stroke-linejoin="round" stroke-width=".25"/><g fill="#8eed62"><path d="m-772.1375-3208.9163v11.4323c0 .2807.1642.507.368.507.0736 0 .14725-.0313.2039-.086l6.0359-5.638c.1982-.1872.2492-.5616.1133-.8345-.0283-.0625-.068-.117-.1133-.156l-6.0359-5.6459c-.1699-.156-.3964-.0936-.5096.1324-.0397.086-.0623.1795-.0623.281zm-.5662 0c0-.2574.0566-.5069.1585-.7253.2944-.5848.872-.7408 1.3023-.3431l6.036 5.6382c.1076.1015.19815.2261.2661.3665.3114.6317.1925 1.4895-.2661 1.9184l-6.036 5.6381c-.1529.1482-.3397.2185-.5266.2185-.5152 0-.9342-.577-.9342-1.287z"/><path d="m-764.6061-3208.9163v11.4323c0 .2807.1642.507.3681.507.0736 0 .1472-.0313.2038-.086l6.036-5.638c.1981-.1872.2491-.5616.1132-.8345-.0283-.0625-.0679-.117-.1132-.156l-6.036-5.6459c-.1699-.156-.39635-.0936-.5096.1324-.0396.086-.0623.1795-.0623.281zm-.5662 0c0-.2574.0566-.5069.1585-.7253.2945-.5848.872-.7408 1.30235-.3431l6.03595 5.6382c.1076.1015.1982.2261.2661.3665.31145.6317.19255 1.4895-.2661 1.9184l-6.03595 5.6381c-.15285.1482-.33975.2185-.52655.2185-.5153 0-.9343-.577-.9343-1.287z"/></g></g></svg>

<?xml version="1.0" encoding="UTF-8" standalone="no"?>
<!DOCTYPE svg PUBLIC "-//W3C//DTD SVG 1.1//EN" "http://www.w3.org/Graphics/SVG/1.1/DTD/svg11.dtd">
<svg xmlns="http://www.w3.org/2000/svg" xmlns:xl="http://www.w3.org/1999/xlink" version="1.1" xmlns:dc="http://purl.org/dc/elements/1.1/" viewBox="-778.7741 -3215.705 24.999996 25" width="24.999996" height="25">
  <defs/>
  <g id="SOURCES" stroke-opacity="1" fill="none" stroke="none" fill-opacity="1" stroke-dasharray="none">
    <title>SOURCES</title>
    <g id="SOURCES_Dark">
      <title>Dark</title>
      <g id="Graphic_11352">
        <circle cx="-766.2741" cy="-3203.205" r="12.000018268838" fill="#666"/>
        <circle cx="-766.2741" cy="-3203.205" r="12.000018268838" stroke="white" stroke-linecap="round" stroke-linejoin="round" stroke-width=".25"/>
      </g>
      <g id="Graphic_11351">
        <path d="M -772.1375 -3208.9163 L -772.1375 -3197.484 C -772.1375 -3197.2033 -771.9733 -3196.977 -771.7695 -3196.977 C -771.6959 -3196.977 -771.62225 -3197.0083 -771.5656 -3197.063 L -765.5297 -3202.701 C -765.3315 -3202.8882 -765.2805 -3203.2626 -765.4164 -3203.5355 C -765.4447 -3203.598 -765.4844 -3203.6525 -765.5297 -3203.6915 L -771.5656 -3209.3374 C -771.7355 -3209.4934 -771.962 -3209.431 -772.0752 -3209.205 C -772.1149 -3209.119 -772.1375 -3209.0255 -772.1375 -3208.924 Z M -772.7037 -3208.9163 C -772.7037 -3209.1737 -772.6471 -3209.4232 -772.5452 -3209.6416 C -772.2508 -3210.2264 -771.6732 -3210.3824 -771.2429 -3209.9847 L -765.2069 -3204.3465 C -765.0993 -3204.245 -765.00875 -3204.1204 -764.9408 -3203.98 C -764.6294 -3203.3483 -764.7483 -3202.4905 -765.2069 -3202.0616 L -771.2429 -3196.4235 C -771.3958 -3196.2753 -771.5826 -3196.205 -771.7695 -3196.205 C -772.2847 -3196.205 -772.7037 -3196.782 -772.7037 -3197.492 Z" fill="#8eed62"/>
      </g>
      <g id="Graphic_11349">
        <path d="M -764.6061 -3208.9163 L -764.6061 -3197.484 C -764.6061 -3197.2033 -764.4419 -3196.977 -764.238 -3196.977 C -764.1644 -3196.977 -764.0908 -3197.0083 -764.0342 -3197.063 L -757.9982 -3202.701 C -757.8001 -3202.8882 -757.7491 -3203.2626 -757.885 -3203.5355 C -757.9133 -3203.598 -757.9529 -3203.6525 -757.9982 -3203.6915 L -764.0342 -3209.3374 C -764.2041 -3209.4934 -764.43055 -3209.431 -764.5438 -3209.205 C -764.5834 -3209.119 -764.6061 -3209.0255 -764.6061 -3208.924 Z M -765.1723 -3208.9163 C -765.1723 -3209.1737 -765.1157 -3209.4232 -765.0138 -3209.6416 C -764.7193 -3210.2264 -764.1418 -3210.3824 -763.71145 -3209.9847 L -757.6755 -3204.3465 C -757.5679 -3204.245 -757.4773 -3204.1204 -757.4094 -3203.98 C -757.09795 -3203.3483 -757.21685 -3202.4905 -757.6755 -3202.0616 L -763.71145 -3196.4235 C -763.8643 -3196.2753 -764.0512 -3196.205 -764.238 -3196.205 C -764.7533 -3196.205 -765.1723 -3196.782 -765.1723 -3197.492 Z" fill="#8eed62"/>
      </g>
    </g>
  </g>
</svg>
